X: 68
T: Dibdin's Fancy
R: reel
M: 2/4
L: 1/8
Z: 2012 John Chambers <jc:trillian.mit.edu>
B: Saml. Ann & Peter Thompson "Twenty Four Country Dances for the Year 1791", London 1791, p.34 #2
K: A
% - - - - - - - - - - - - - - - - - - - - - - - - -
|:\
AEAE CEE2 | FDDD | d2BG |\
AEAE CEE2 | FDBG | A2-A2 :|
|:\
ecde | fgaf | ecBA | e2e2 |\
ecde | fgaf | ecBA | e2-e2 "^D.C."y|]
% - - - - - - - - Dance description - - - - - - - -
%%begintext align
%% 1st Gent: turn the 2d Lady .|.
%% 1st Lady turn the 2d Gent: :|.
%% cross over one Cu: .|:
%% Right and Left :|:
%%endtext

%%sep 1 1 500
%%sep 1 1 500
